img/cardBube.svg

<svg width="61" height="91" viewBox="0 0 61 91" fill="none" xmlns="http://www.w3.org/2000/svg">
<rect x="0.392578" y="0.0498047" width="60.057" height="90.0855" rx="4.61977" fill="white"/>
<mask id="mask0_1592_9465" style="mask-type:alpha" maskUnits="userSpaceOnUse" x="1" y="1" width="58" height="87">
<path d="M11.2824 2.3597H53.5203C55.7528 2.3597 57.5626 4.1695 57.5626 6.402L57.5625 67.6855C57.5625 68.6028 56.8189 69.3464 55.9017 69.3464C54.5771 69.3464 53.4316 70.2696 53.1502 71.564L50.8911 81.9556C50.692 82.8714 51.0989 83.8123 51.9025 84.2944C52.7896 84.8267 52.4278 86.1879 51.3935 86.2094L6.41584 87.1464C4.09651 87.1948 2.21244 85.2854 2.2917 82.9669L4.31849 23.6847C4.37276 22.0974 5.67518 20.8388 7.26334 20.8388C9.52854 20.8388 11.3649 19.0025 11.3649 16.7373L11.3649 8.21691C11.3649 7.25616 10.9125 6.35148 10.1439 5.77503C8.68518 4.68097 9.45894 2.3597 11.2824 2.3597Z" fill="#C4C4C4" stroke="black" stroke-width="1.15494"/>
</mask>
<g mask="url(#mask0_1592_9465)">
<rect x="6.1678" y="5.24715" width="49.6625" height="79.691" rx="4.0423" stroke="black" stroke-width="1.15494"/>
</g>
<path d="M6.16748 45.0925H55.83" stroke="black" stroke-width="1.15494"/>
<path d="M16.6963 18.5288H11.8157C13.7571 17.3912 14.1011 16.4695 14.256 14.6503L11.0023 16.2017C9.22266 15.012 9.12927 14.3338 11.0023 13.0989L14.256 14.6503L12.629 10.7719C13.6595 8.75786 14.6625 8.83273 15.8828 10.7719L14.256 14.6503L17.9165 13.0989C19.3434 14.3108 19.0275 14.9899 17.9165 16.2017L14.256 14.6503C14.5519 16.4698 14.9741 17.3705 16.6963 18.5288Z" fill="black"/>
<path d="M14.256 14.6503C14.1011 16.4695 13.7571 17.3912 11.8157 18.5288H16.6963C14.9741 17.3705 14.5519 16.4698 14.256 14.6503ZM14.256 14.6503L11.0023 16.2017C9.22266 15.012 9.12927 14.3338 11.0023 13.0989L14.256 14.6503ZM14.256 14.6503L15.8828 10.7719C14.6625 8.83273 13.6595 8.75786 12.629 10.7719L14.256 14.6503ZM14.256 14.6503L17.9165 13.0989C19.3434 14.3108 19.0275 14.9899 17.9165 16.2017L14.256 14.6503Z" stroke="black" stroke-width="1.15494"/>
<path d="M44.146 71.6562L49.0266 71.6562C47.0852 72.7938 46.7412 73.7156 46.5863 75.5347L49.84 73.9833C51.6196 75.173 51.713 75.8512 49.84 77.0861L46.5863 75.5347L48.2133 79.4131C47.1828 81.4272 46.1798 81.3523 44.9595 79.4131L46.5863 75.5347L42.9258 77.0861C41.4989 75.8743 41.8148 75.1951 42.9258 73.9833L46.5863 75.5347C46.2903 73.7153 45.8682 72.8145 44.146 71.6562Z" fill="black"/>
<path d="M46.5863 75.5347C46.7412 73.7156 47.0852 72.7938 49.0266 71.6562L44.146 71.6562C45.8682 72.8145 46.2903 73.7153 46.5863 75.5347ZM46.5863 75.5347L49.84 73.9833C51.6196 75.173 51.713 75.8512 49.84 77.0861L46.5863 75.5347ZM46.5863 75.5347L44.9595 79.4131C46.1798 81.3523 47.1828 81.4272 48.2133 79.4131L46.5863 75.5347ZM46.5863 75.5347L42.9258 77.0861C41.4989 75.8743 41.8148 75.1951 42.9258 73.9833L46.5863 75.5347Z" stroke="black" stroke-width="1.15494"/>
<path d="M7.77456 6.83205C7.73546 7.36478 7.70369 7.83153 7.67925 8.2323C7.65481 8.63307 7.63526 8.98986 7.6206 9.30265C7.61083 9.61056 7.6035 9.88426 7.59861 10.1237C7.59861 10.3632 7.60105 10.5905 7.60594 10.8055C7.61083 11.0206 7.61816 11.2356 7.62793 11.4507C7.63771 11.6608 7.64504 11.8906 7.64992 12.1398C7.6597 12.3891 7.66703 12.6701 7.67192 12.9829C7.68169 13.2908 7.68658 13.6525 7.68658 14.0679C7.68658 14.5567 7.6377 15.0283 7.53995 15.4828C7.4422 15.9374 7.27603 16.3406 7.04143 16.6925C6.80684 17.0395 6.49159 17.3181 6.09571 17.5282C5.69983 17.7384 5.20375 17.8435 4.60748 17.8435C4.25558 17.8435 3.94279 17.8019 3.66909 17.7188C3.40028 17.6358 3.16324 17.5233 2.95797 17.3816C2.75758 17.2399 2.58652 17.0737 2.44478 16.8831C2.30794 16.6925 2.19552 16.4921 2.10755 16.2819C2.02446 16.0669 1.96337 15.8494 1.92427 15.6295C1.89006 15.4046 1.87295 15.1896 1.87295 14.9843C1.87295 14.7106 1.91694 14.4834 2.00491 14.3025C2.09778 14.1217 2.20774 13.9775 2.33482 13.87C2.46678 13.7625 2.60118 13.6867 2.73803 13.6427C2.87977 13.5987 3.00196 13.5767 3.10459 13.5767C3.21212 13.5767 3.33675 13.5987 3.47848 13.6427C3.62511 13.6818 3.7644 13.7527 3.89636 13.8553C4.02832 13.9531 4.13829 14.0826 4.22626 14.2439C4.31912 14.4052 4.36555 14.6031 4.36555 14.8377C4.35578 15.0185 4.31668 15.1871 4.24825 15.3435C4.18961 15.4755 4.09674 15.6075 3.96967 15.7394C3.84748 15.8665 3.66909 15.9569 3.43449 16.0107C3.52247 16.1524 3.62022 16.2673 3.72774 16.3552C3.84015 16.4383 3.95256 16.5019 4.06497 16.5459C4.18227 16.5898 4.29224 16.6192 4.39488 16.6338C4.49751 16.6485 4.58304 16.6558 4.65147 16.6558C4.9105 16.6558 5.11822 16.6045 5.27462 16.5019C5.43102 16.3943 5.55076 16.2477 5.63385 16.062C5.71693 15.8714 5.7707 15.6515 5.79513 15.4022C5.82446 15.148 5.83912 14.8743 5.83912 14.5811C5.83912 13.9164 5.83668 13.259 5.83179 12.609C5.83179 11.9541 5.82446 11.3065 5.8098 10.6663C5.79514 10.026 5.7707 9.38818 5.73649 8.75282C5.70228 8.11745 5.65096 7.48696 5.58254 6.86137C5.6363 6.87115 5.70472 6.88092 5.78781 6.8907C5.91977 6.90536 6.1226 6.91269 6.3963 6.91269C6.56736 6.91269 6.76774 6.9078 6.99745 6.89803C7.22716 6.88825 7.4862 6.86626 7.77456 6.83205Z" fill="black"/>
<path d="M53.0672 82.198C53.1063 81.6653 53.1381 81.1985 53.1625 80.7977C53.187 80.397 53.2065 80.0402 53.2212 79.7274C53.231 79.4195 53.2383 79.1458 53.2432 78.9063C53.2432 78.6668 53.2407 78.4395 53.2359 78.2245C53.231 78.0094 53.2236 77.7944 53.2139 77.5793C53.2041 77.3692 53.1968 77.1395 53.1919 76.8902C53.1821 76.6409 53.1748 76.3599 53.1699 76.0471C53.1601 75.7392 53.1552 75.3775 53.1552 74.9621C53.1552 74.4734 53.2041 74.0017 53.3018 73.5472C53.3996 73.0927 53.5658 72.6894 53.8004 72.3375C54.035 71.9905 54.3502 71.712 54.7461 71.5018C55.142 71.2916 55.638 71.1866 56.2343 71.1866C56.5862 71.1866 56.899 71.2281 57.1727 71.3112C57.4415 71.3943 57.6786 71.5067 57.8838 71.6484C58.0842 71.7902 58.2553 71.9563 58.397 72.1469C58.5339 72.3375 58.6463 72.5379 58.7342 72.7481C58.8173 72.9631 58.8784 73.1806 58.9175 73.4006C58.9517 73.6254 58.9688 73.8404 58.9688 74.0457C58.9688 74.3194 58.9249 74.5467 58.8369 74.7275C58.744 74.9083 58.6341 75.0525 58.507 75.1601C58.375 75.2676 58.2406 75.3433 58.1038 75.3873C57.962 75.4313 57.8398 75.4533 57.7372 75.4533C57.6297 75.4533 57.5051 75.4313 57.3633 75.3873C57.2167 75.3482 57.0774 75.2774 56.9454 75.1747C56.8135 75.077 56.7035 74.9474 56.6155 74.7862C56.5227 74.6249 56.4762 74.4269 56.4762 74.1923C56.486 74.0115 56.5251 73.8429 56.5935 73.6865C56.6522 73.5545 56.7451 73.4226 56.8721 73.2906C56.9943 73.1635 57.1727 73.0731 57.4073 73.0193C57.3193 72.8776 57.2216 72.7628 57.1141 72.6748C57.0016 72.5917 56.8892 72.5282 56.7768 72.4842C56.6595 72.4402 56.5496 72.4109 56.4469 72.3962C56.3443 72.3815 56.2588 72.3742 56.1903 72.3742C55.9313 72.3742 55.7236 72.4255 55.5672 72.5282C55.4108 72.6357 55.291 72.7823 55.208 72.968C55.1249 73.1586 55.0711 73.3786 55.0467 73.6278C55.0173 73.882 55.0027 74.1557 55.0027 74.4489C55.0027 75.1136 55.0051 75.771 55.01 76.421C55.01 77.0759 55.0173 77.7235 55.032 78.3638C55.0467 79.004 55.0711 79.6418 55.1053 80.2772C55.1395 80.9126 55.1908 81.5431 55.2593 82.1687C55.2055 82.1589 55.1371 82.1491 55.054 82.1393C54.922 82.1247 54.7192 82.1173 54.4455 82.1173C54.2744 82.1173 54.0741 82.1222 53.8443 82.132C53.6146 82.1418 53.3556 82.1638 53.0672 82.198Z" fill="black"/>
<path d="M39.0834 61.8392C39.0834 64.2203 39.6607 58.9519 43.1257 60.6843C46.2529 62.2478 41.971 62.9942 41.394 67.0365C39.9714 70.0425 38.0581 75.0594 37.3516 75.6985L28.6896 75.121L33.3093 65.304L36.7735 60.6843C39.0834 59.5294 39.0834 60.6843 39.0834 61.8392Z" fill="#FFDC22"/>
<path d="M48.9001 54.3321L43.7028 60.6842C42.7789 58.8363 41.008 60.2993 40.238 61.2617C40.238 61.0692 39.8915 60.5688 38.5056 60.1068C37.1197 59.6448 35.6182 60.6842 35.0408 61.2617L26.9562 49.1348L19.449 58.9518L13.0969 54.3321L12.5194 43.9376L49.4776 43.9376L48.9001 54.3321Z" fill="#D1B167"/>
<path d="M33.3086 65.8815L28.1114 75.6985L20.0268 75.121L20.6042 70.5012L18.8718 67.0364L20.6042 65.8815L21.1817 64.1491L21.1817 60.1068C21.7592 60.2993 23.4916 60.5687 25.8015 60.1068C28.1114 59.6448 30.2288 61.4542 30.9987 62.4166L30.9987 64.1491C32.2473 64.206 32.7025 64.6757 33.3086 65.8815Z" fill="#FFDBB0"/>
<path d="M21.1814 60.1067L26.9561 52.5996L33.8857 64.149L32.7308 65.304C29.266 61.2617 28.6781 59.2538 21.1814 60.1067Z" fill="#3076FF"/>
<path d="M34.4632 63.5715L35.6182 61.8391L26.9561 49.1347L20.0264 58.9518L21.1814 60.1067L27.5336 52.5996L34.4632 63.5715Z" fill="#B02929"/>
<path d="M22.7344 74.0513C22.9313 74.3276 24.109 74.5777 27.2454 73.3681" stroke="black" stroke-width="1.15494"/>
<path d="M22.192 65.518C22.9139 65.0368 24.5019 64.0743 25.0794 64.0743C25.8012 64.0743 27.2449 65.518 25.8012 66.2399C24.6463 66.8173 24.3576 65.9992 24.3576 65.518" stroke="black" stroke-width="0.577471"/>
<path d="M23.6359 71.2925L25.0796 71.2925" stroke="black" stroke-width="1.15494"/>
<path d="M38.7944 79.9546L38.0726 74.9017C33.9822 75.8642 24.6464 77.2116 20.0266 74.9017C20.0266 79.9546 15.6956 78.5109 20.0266 80.6764C23.4914 82.4089 33.9822 80.9171 38.7944 79.9546Z" fill="black" stroke="black" stroke-width="1.15494" stroke-linejoin="bevel"/>
<path d="M50.0552 44.5151L11.9421 44.5151" stroke="black" stroke-width="1.15494" stroke-linejoin="bevel"/>
<path d="M22.1921 66.0798C21.4702 66.0798 18.5829 66.0798 18.5829 66.8017C18.5829 67.3791 20.0266 69.4484 20.7484 70.4109L20.0266 74.7419C21.4212 75.5787 24.5559 75.7755 27.9667 75.6741M20.7484 66.0798C20.4252 65.1101 20.69 64.3967 21.1124 63.9143M22.1921 63.1925C21.8743 63.2984 21.4446 63.5349 21.1124 63.9143M21.1124 63.9143L21.1124 60.3051M21.1124 60.3051C22.2373 60.2676 24.9807 60.2121 27.2449 60.3051C29.6239 60.4029 31.0947 62.23 31.5759 63.1925M21.1124 60.3051L19.449 59.241M21.1124 60.3051L27.2449 52.5996L34.3573 63.9143M12.5194 45.0925L13.0969 54.5304L19.449 59.241M39.5162 68.2454C37.7544 68.0647 36.6288 67.5235 37.3507 66.0798C38.6581 63.4651 40.455 64.3832 41.2691 65.358M41.2691 65.358C41.4847 65.6162 41.6314 65.8783 41.6817 66.0798C42.2592 67.2348 39.5162 72.3358 38.0725 74.7419C35.5846 75.1151 31.6175 75.5655 27.9667 75.6741M41.2691 65.358L42.4036 63.9143C43.7715 63.5235 44.5363 62.1486 43.8472 61.0271M43.8472 61.0271C43.6878 60.7678 43.4507 60.522 43.1254 60.3051C42.5564 59.768 39.6867 60.8297 40.238 61.8392M43.8472 61.0271L48.9001 54.5304L49.4776 45.0925M27.9667 75.6741L31.5759 68.2454C32.2536 67.7613 32.8533 67.0826 33.1401 66.3971M30.1323 66.8017C28.9292 65.5986 29.4751 63.3891 31.5759 63.9143C33.3016 64.3457 33.5662 65.3788 33.1401 66.3971M34.4633 63.9143L35.907 61.0271C37.3507 59.5833 40.9599 59.5833 38.7943 63.1925M34.4633 68.2454C35.6664 67.7641 37.9473 65.9924 35.907 64.6362C34.5525 63.7358 33.3406 65.0883 33.1401 66.3971M19.449 59.241L27.2449 49.1348L35.0408 61.8392" stroke="black" stroke-width="1.15494"/>
<g style="mix-blend-mode:multiply">
<path d="M20.6039 74.5437C21.1368 72.8897 21.6356 70.8325 21.1813 69.9239C20.6039 68.769 20.0264 68.1915 18.8714 67.0366M21.1813 65.8816C21.2598 64.552 21.039 64.1657 21.7588 63.5717L21.7588 60.6844" stroke="#FFCB8D" stroke-opacity="0.46" stroke-width="1.15494"/>
</g>
<path d="M22.9136 27.7684C22.9137 25.3874 22.3364 30.6558 18.8713 28.9234C15.7442 27.3599 20.026 26.6135 20.603 22.5712C22.0256 19.5652 23.939 14.5482 24.6454 13.9092L33.3075 14.4867L28.6877 24.3037L25.2235 28.9234C22.9136 30.0783 22.9136 28.9234 22.9136 27.7684Z" fill="#FFDC22"/>
<path d="M13.097 35.2756L18.2942 28.9234C19.2182 30.7713 20.9891 29.3084 21.7591 28.3459C21.7591 28.5384 22.1056 29.0389 23.4915 29.5009C24.8774 29.9629 26.3788 28.9234 26.9563 28.3459L35.0409 40.4728L42.548 30.6558L48.9002 35.2756L49.4777 45.6701H12.5195L13.097 35.2756Z" fill="#D1B167"/>
<path d="M28.6885 23.7262L33.8857 13.9092L41.9703 14.4867L41.3928 19.1064L43.1253 22.5712L41.3928 23.7262L40.8154 25.4586L40.8154 29.5009C40.2379 29.3084 38.5055 29.0389 36.1956 29.5009C33.8857 29.9629 31.7683 28.1535 30.9984 27.191L30.9984 25.4586C29.7498 25.4017 29.2946 24.932 28.6885 23.7262Z" fill="#FFDBB0"/>
<path d="M40.8157 29.501L35.041 37.0081L28.1113 25.4587L29.2663 24.3037C32.7311 28.346 33.319 30.3539 40.8157 29.501Z" fill="#3076FF"/>
<path d="M27.5338 26.0361L26.3789 27.7685L35.041 40.4729L41.9706 30.6559L40.8157 29.501L34.4635 37.0081L27.5338 26.0361Z" fill="#B02929"/>
<path d="M39.2626 15.5563C39.0658 15.2801 37.8881 15.03 34.7517 16.2396" stroke="black" stroke-width="1.15494"/>
<path d="M39.805 24.0896C39.0832 24.5709 37.4952 25.5333 36.9177 25.5333C36.1958 25.5333 34.7522 24.0896 36.1958 23.3678C37.3508 22.7903 37.6395 23.6084 37.6395 24.0896" stroke="black" stroke-width="0.577471"/>
<path d="M38.3611 18.3152H36.9175" stroke="black" stroke-width="1.15494"/>
<path d="M23.2026 9.65306L23.9245 14.7059C28.0149 13.7435 37.3507 12.3961 41.9705 14.706C41.9705 9.6531 46.3015 11.0967 41.9705 8.93122C38.5056 7.1988 28.0149 8.6906 23.2026 9.65306Z" fill="black" stroke="black" stroke-width="1.15494" stroke-linejoin="bevel"/>
<path d="M11.9419 45.0925H50.055" stroke="black" stroke-width="1.15494" stroke-linejoin="bevel"/>
<path d="M39.805 23.5278C40.5268 23.5278 43.4142 23.5278 43.4142 22.806C43.4142 22.2285 41.9705 20.1592 41.2487 19.1968L41.9705 14.8657C40.5759 14.029 37.4411 13.8321 34.0303 13.9336M41.2487 23.5278C41.5719 24.4976 41.3071 25.211 40.8847 25.6933M39.805 26.4152C40.1228 26.3093 40.5525 26.0727 40.8847 25.6933M40.8847 25.6933L40.8847 29.3025M40.8847 29.3025C39.7598 29.3401 37.0164 29.3956 34.7522 29.3025C32.3732 29.2048 30.9024 27.3776 30.4211 26.4152M40.8847 29.3025L42.548 30.3667M40.8847 29.3025L34.7522 37.008L27.6398 25.6933M49.4777 44.5152L48.9002 35.0773L42.548 30.3667M22.4809 21.3623C24.2427 21.5429 25.3682 22.0841 24.6464 23.5278C23.339 26.1426 21.5421 25.2244 20.728 24.2497M20.728 24.2497C20.5124 23.9915 20.3657 23.7294 20.3153 23.5278C19.7379 22.3729 22.4809 17.2719 23.9245 14.8657C26.4124 14.4925 30.3795 14.0422 34.0303 13.9336M20.728 24.2497L19.5935 25.6933C18.2256 26.0842 17.4608 27.4591 18.1499 28.5805M18.1499 28.5805C18.3092 28.8398 18.5463 29.0856 18.8717 29.3025C19.4406 29.8397 22.3103 28.778 21.7591 27.7685M18.1499 28.5805L13.097 35.0773L12.5195 44.5152M34.0303 13.9336L30.4211 21.3623C29.7435 21.8463 29.1438 22.5251 28.8569 23.2106M31.8648 22.806C33.0679 24.0091 32.522 26.2186 30.4211 25.6933C28.6954 25.2619 28.4309 24.2289 28.8569 23.2106M27.5338 25.6933L26.0901 28.5805C24.6464 30.0244 21.0372 30.0244 23.2027 26.4152M27.5338 21.3623C26.3307 21.8435 24.0497 23.6152 26.0901 24.9715C27.4445 25.8718 28.6565 24.5194 28.8569 23.2106M42.548 30.3667L34.7522 40.4729L26.9563 27.7685" stroke="black" stroke-width="1.15494"/>
<g style="mix-blend-mode:multiply">
<path d="M41.3932 15.064C40.8602 16.718 40.3614 18.7751 40.8157 19.6837C41.3932 20.8387 41.9707 21.4161 43.1256 22.5711M40.8157 23.726C40.7373 25.0557 40.9581 25.442 40.2383 26.0359L40.2383 28.9233" stroke="#FFCB8D" stroke-opacity="0.46" stroke-width="1.15494"/>
</g>
</svg>

<svg width="61" height="91" fill="none" xmlns="http://www.w3.org/2000/svg"><rect x=".39" y=".05" width="60.06" height="90.09" rx="4.62" fill="#fff"/><mask id="a" style="mask-type:alpha" maskUnits="userSpaceOnUse" x="1" y="1" width="58" height="87"><path d="M11.28 2.36h42.24a4.04 4.04 0 0 1 4.04 4.04V67.7c0 .91-.74 1.66-1.66 1.66-1.32 0-2.47.92-2.75 2.21l-2.26 10.4c-.2.91.2 1.85 1.01 2.33.89.54.53 1.9-.5 1.92l-44.98.94a4.04 4.04 0 0 1-4.13-4.18l2.03-59.29a2.95 2.95 0 0 1 2.94-2.84 4.1 4.1 0 0 0 4.1-4.1V8.22c0-.96-.45-1.87-1.22-2.44a1.9 1.9 0 0 1 1.14-3.42Z" fill="#C4C4C4" stroke="#000" stroke-width="1.15"/></mask><g mask="url(#a)"><rect x="6.17" y="5.25" width="49.66" height="79.69" rx="4.04" stroke="#000" stroke-width="1.15"/></g><path d="M6.17 45.1h49.66" stroke="#000" stroke-width="1.15"/><path d="M16.7 18.53h-4.88c1.94-1.14 2.28-2.06 2.44-3.88L11 16.2c-1.78-1.19-1.87-1.87 0-3.1l3.26 1.55-1.63-3.88c1.03-2.01 2.03-1.94 3.25 0l-1.62 3.88 3.66-1.55c1.42 1.21 1.1 1.89 0 3.1l-3.66-1.55c.3 1.82.71 2.72 2.44 3.88Z" fill="#000"/><path d="M14.26 14.65c-.16 1.82-.5 2.74-2.44 3.88h4.88c-1.73-1.16-2.15-2.06-2.44-3.88Zm0 0L11 16.2c-1.78-1.19-1.87-1.87 0-3.1l3.26 1.55Zm0 0 1.62-3.88c-1.22-1.94-2.22-2.01-3.25 0l1.63 3.88Zm0 0 3.66-1.55c1.42 1.21 1.1 1.89 0 3.1l-3.66-1.55Z" stroke="#000" stroke-width="1.15"/><path d="M44.15 71.66h4.88c-1.94 1.13-2.29 2.06-2.44 3.87l3.25-1.55c1.78 1.2 1.87 1.87 0 3.1l-3.25-1.55 1.62 3.88c-1.03 2.02-2.03 1.94-3.25 0l1.63-3.88-3.66 1.56c-1.43-1.22-1.12-1.9 0-3.1l3.66 1.54c-.3-1.81-.72-2.72-2.44-3.87Z" fill="#000"/><path d="M46.59 75.53c.15-1.81.5-2.74 2.44-3.87h-4.88c1.72 1.15 2.14 2.06 2.44 3.87Zm0 0 3.25-1.55c1.78 1.2 1.87 1.87 0 3.1l-3.25-1.55Zm0 0-1.63 3.88c1.22 1.94 2.22 2.02 3.25 0l-1.62-3.88Zm0 0-3.66 1.56c-1.43-1.22-1.12-1.9 0-3.1l3.66 1.54Z" stroke="#000" stroke-width="1.15"/><path d="M7.77 6.83a115.33 115.33 0 0 0-.17 3.3 30.05 30.05 0 0 0 .05 2.01 36.11 36.11 0 0 1 .04 1.93c0 .49-.05.96-.15 1.41-.1.46-.26.86-.5 1.21-.23.35-.55.63-.94.84-.4.2-.9.31-1.5.31-.34 0-.66-.04-.93-.12a2.26 2.26 0 0 1-1.22-.84 3.04 3.04 0 0 1-.58-1.9c0-.27.05-.5.13-.68a1.25 1.25 0 0 1 1.1-.73c.11 0 .24.03.38.07.15.04.28.11.42.22a1.17 1.17 0 0 1 .47.98c-.01.18-.05.35-.12.5a1.4 1.4 0 0 1-.28.4c-.12.13-.3.22-.54.27.1.14.19.26.3.35a1.47 1.47 0 0 0 .92.3c.26 0 .47-.06.62-.16.16-.1.28-.25.36-.44.09-.19.14-.4.17-.66.02-.25.04-.53.04-.82a262.18 262.18 0 0 0-.03-3.91 61.97 61.97 0 0 0-.23-3.8 3.42 3.42 0 0 0 .82.04 14.38 14.38 0 0 0 1.37-.08ZM53.07 82.2a114.42 114.42 0 0 0 .17-3.3 30.6 30.6 0 0 0-.05-2.01 36.06 36.06 0 0 1-.03-1.93c0-.49.04-.96.14-1.41.1-.46.27-.86.5-1.21.23-.35.55-.63.95-.84.4-.2.89-.31 1.48-.31.36 0 .67.04.94.12a2.26 2.26 0 0 1 1.22.84 3.04 3.04 0 0 1 .58 1.9c0 .27-.05.5-.13.68a1.25 1.25 0 0 1-1.1.73c-.11 0-.23-.03-.38-.07a1.17 1.17 0 0 1-.41-.22 1.17 1.17 0 0 1-.47-.98c0-.18.05-.35.11-.5.06-.14.16-.27.28-.4.12-.13.3-.22.54-.27a1.38 1.38 0 0 0-.3-.35 1.48 1.48 0 0 0-.92-.3c-.26 0-.47.06-.62.16-.16.1-.28.25-.36.44-.09.19-.14.4-.16.66-.03.25-.05.53-.05.82a261.66 261.66 0 0 0 .03 3.91 62.14 62.14 0 0 0 .23 3.8 3.41 3.41 0 0 0-.81-.04 14.34 14.34 0 0 0-1.38.08Z" fill="#000"/><path d="M39.08 61.84c0 2.38.58-2.89 4.05-1.16 3.12 1.57-1.16 2.31-1.74 6.36-1.42 3-3.33 8.02-4.04 8.66l-8.66-.58 4.62-9.82 3.46-4.62c2.31-1.15 2.31 0 2.31 1.16Z" fill="#FFDC22"/><path d="m48.9 54.33-5.2 6.35c-.92-1.84-2.7-.38-3.46.58 0-.2-.35-.7-1.73-1.15-1.39-.47-2.9.57-3.47 1.15l-8.08-12.13-7.51 9.82-6.35-4.62-.58-10.4h36.96l-.58 10.4Z" fill="#D1B167"/><path d="m33.3 65.88-5.19 9.82-8.08-.58.57-4.62-1.73-3.46 1.73-1.16.58-1.73V60.1c.58.19 2.31.46 4.62 0 2.31-.47 4.43 1.34 5.2 2.3v1.74c1.25.06 1.7.53 2.3 1.73Z" fill="#FFDBB0"/><path d="m21.18 60.1 5.78-7.5 6.93 11.55-1.16 1.15c-3.46-4.04-4.05-6.05-11.55-5.2Z" fill="#3076FF"/><path d="m34.46 63.57 1.16-1.73-8.66-12.7-6.93 9.81 1.15 1.16 6.35-7.51 6.93 10.97Z" fill="#B02929"/><path d="M22.73 74.05c.2.28 1.38.53 4.52-.68" stroke="#000" stroke-width="1.15"/><path d="M22.2 65.52c.71-.48 2.3-1.45 2.88-1.45.72 0 2.16 1.45.72 2.17-1.15.58-1.44-.24-1.44-.72" stroke="#000" stroke-width=".58"/><path d="M23.64 71.3h1.44" stroke="#000" stroke-width="1.15"/><path d="m38.8 79.95-.73-5.05c-4.09.96-13.42 2.31-18.04 0 0 5.05-4.33 3.61 0 5.78 3.46 1.73 13.95.24 18.76-.73Z" fill="#000" stroke="#000" stroke-width="1.15" stroke-linejoin="bevel"/><path d="M50.06 44.52H11.94" stroke="#000" stroke-width="1.15" stroke-linejoin="bevel"/><path d="M22.2 66.08c-.73 0-3.62 0-3.62.72 0 .58 1.45 2.65 2.17 3.61l-.72 4.33c1.4.84 4.53 1.04 7.94.93m-7.22-9.59c-.32-.97-.06-1.68.36-2.17m1.08-.72c-.32.1-.75.34-1.08.72m0 0v-3.6m0 0c1.13-.04 3.87-.1 6.13 0a5.32 5.32 0 0 1 4.34 2.88M21.1 60.31l-1.66-1.07m1.66 1.07 6.13-7.71 7.12 11.31M12.52 45.1l.58 9.44 6.35 4.71m20.07 9c-1.77-.18-2.9-.72-2.17-2.16 1.3-2.61 3.1-1.7 3.92-.72m0 0a2 2 0 0 1 .41.72c.58 1.15-2.16 6.26-3.6 8.66-2.5.38-6.46.83-10.11.93m13.3-10.31 1.13-1.45c1.37-.39 2.14-1.76 1.45-2.88m0 0c-.16-.26-.4-.5-.72-.72-.57-.54-3.44.52-2.9 1.53m3.62-.81 5.05-6.5.58-9.44M27.97 75.67l3.6-7.42a4.64 4.64 0 0 0 1.57-1.85m-3 .4c-1.21-1.2-.66-3.41 1.44-2.89 1.72.44 1.99 1.47 1.56 2.49m1.32-2.49 1.45-2.88c1.44-1.45 5.05-1.45 2.88 2.16m-4.33 5.06c1.2-.49 3.49-2.26 1.45-3.61-1.36-.9-2.57.45-2.77 1.76m-13.7-7.16 7.8-10.1 7.8 12.7" stroke="#000" stroke-width="1.15"/><path d="M20.6 74.54c.54-1.65 1.04-3.7.58-4.62-.58-1.15-1.15-1.73-2.3-2.88m2.3-1.16c.08-1.33-.14-1.71.58-2.3v-2.9" stroke="#FFCB8D" stroke-opacity=".46" stroke-width="1.15" style="mix-blend-mode:multiply"/><path d="M22.91 27.77c0-2.38-.57 2.89-4.04 1.15-3.13-1.56 1.16-2.3 1.73-6.35 1.43-3 3.34-8.02 4.05-8.66l8.66.58-4.62 9.81-3.47 4.62c-2.3 1.16-2.3 0-2.3-1.15Z" fill="#FFDC22"/><path d="m13.1 35.28 5.2-6.36c.92 1.85 2.69.39 3.46-.57 0 .19.35.69 1.73 1.15 1.39.46 2.89-.58 3.47-1.15l8.08 12.12 7.5-9.81 6.36 4.62.58 10.39H12.52l.58-10.4Z" fill="#D1B167"/><path d="m28.69 23.73 5.2-9.82 8.08.58-.58 4.62 1.74 3.46-1.74 1.16-.57 1.73v4.04c-.58-.2-2.31-.46-4.62 0s-4.43-1.35-5.2-2.3v-1.74c-1.25-.06-1.7-.53-2.31-1.73Z" fill="#FFDBB0"/><path d="M40.82 29.5 35.04 37l-6.93-11.54 1.16-1.16c3.46 4.05 4.05 6.05 11.55 5.2Z" fill="#3076FF"/><path d="m27.53 26.04-1.15 1.73 8.66 12.7 6.93-9.81-1.15-1.16-6.36 7.5-6.93-10.96Z" fill="#B02929"/><path d="M39.26 15.56c-.2-.28-1.37-.53-4.5.68" stroke="#000" stroke-width="1.15"/><path d="M39.8 24.09c-.72.48-2.3 1.44-2.88 1.44-.72 0-2.17-1.44-.72-2.16 1.15-.58 1.44.24 1.44.72" stroke="#000" stroke-width=".58"/><path d="M38.36 18.32h-1.44" stroke="#000" stroke-width="1.15"/><path d="m23.2 9.65.72 5.06c4.1-.97 13.43-2.31 18.05 0 0-5.06 4.33-3.61 0-5.78-3.46-1.73-13.96-.24-18.77.72Z" fill="#000" stroke="#000" stroke-width="1.15" stroke-linejoin="bevel"/><path d="M11.94 45.1h38.12" stroke="#000" stroke-width="1.15" stroke-linejoin="bevel"/><path d="M39.8 23.53c.73 0 3.61 0 3.61-.72 0-.58-1.44-2.65-2.16-3.61l.72-4.33c-1.4-.84-4.53-1.04-7.94-.94m7.22 9.6c.32.97.06 1.68-.37 2.16m-1.08.73c.32-.11.75-.35 1.08-.73m0 0v3.61m0 0c-1.12.04-3.86.1-6.13 0a5.32 5.32 0 0 1-4.33-2.88m10.46 2.88 1.67 1.07m-1.67-1.07L34.75 37l-7.11-11.3m21.84 18.82-.58-9.44-6.35-4.71m-20.07-9c1.76.17 2.89.71 2.17 2.16-1.31 2.61-3.1 1.7-3.92.72m0 0a2 2 0 0 1-.41-.72c-.58-1.16 2.16-6.26 3.6-8.66 2.5-.38 6.46-.83 10.11-.94m-13.3 10.32-1.14 1.44c-1.36.4-2.13 1.77-1.44 2.89m0 0c.16.26.4.5.72.72.57.54 3.44-.52 2.89-1.53m-3.61.81-5.05 6.5-.58 9.44m21.51-30.59-3.6 7.43a4.64 4.64 0 0 0-1.57 1.85m3-.4c1.2 1.2.66 3.4-1.44 2.88-1.72-.43-1.99-1.46-1.56-2.48m-1.33 2.48-1.44 2.89c-1.44 1.44-5.05 1.44-2.89-2.16m4.33-5.06c-1.2.48-3.48 2.26-1.44 3.61 1.35.9 2.57-.45 2.77-1.76m13.69 7.16-7.8 10.1-7.8-12.7" stroke="#000" stroke-width="1.15"/><path d="M41.4 15.06c-.54 1.66-1.04 3.72-.58 4.62.57 1.16 1.15 1.74 2.3 2.9m-2.3 1.15c-.08 1.33.14 1.71-.58 2.3v2.9" stroke="#FFCB8D" stroke-opacity=".46" stroke-width="1.15" style="mix-blend-mode:multiply"/></svg>
